packages/fxa-settings/src/components/ConnectedServices/fpn.svg

<svg width="24" height="24" viewBox="0 0 80 80" fill="none" xmlns="http://www.w3.org/2000/svg">
<path fill-rule="evenodd" clip-rule="evenodd" d="M40 9C36.6863 9 34 11.6863 34 15C34 18.3137 36.6863 21 40 21C43.3137 21 46 18.3137 46 15C46 11.6863 43.3137 9 40 9ZM26 15C26 7.26801 32.268 1 40 1C47.732 1 54 7.26801 54 15C54 22.732 47.732 29 40 29C37.589 29 35.3203 28.3905 33.3396 27.3172L27.3172 33.3396C27.7718 34.1784 28.1431 35.0689 28.4202 36H51.5798C53.3009 30.217 58.658 26 65 26C72.732 26 79 32.268 79 40C79 47.732 72.732 54 65 54C62.589 54 60.3203 53.3905 58.3396 52.3172L52.3172 58.3396C53.3905 60.3203 54 62.589 54 65C54 72.732 47.732 79 40 79C32.268 79 26 72.732 26 65C26 57.268 32.268 51 40 51C42.411 51 44.6797 51.6095 46.6604 52.6827L52.6827 46.6604C52.2282 45.8215 51.8568 44.9311 51.5798 44H28.4202C26.6992 49.783 21.342 54 15 54C7.26801 54 1 47.732 1 40C1 32.268 7.26801 26 15 26C17.411 26 19.6797 26.6095 21.6604 27.6827L27.6827 21.6604C26.6095 19.6797 26 17.411 26 15ZM34 65C34 61.6863 36.6863 59 40 59C43.3137 59 46 61.6863 46 65C46 68.3137 43.3137 71 40 71C36.6863 71 34 68.3137 34 65ZM15 34C11.6863 34 9 36.6863 9 40C9 43.3137 11.6863 46 15 46C18.3137 46 21 43.3137 21 40C21 36.6863 18.3137 34 15 34ZM59 40C59 36.6863 61.6863 34 65 34C68.3137 34 71 36.6863 71 40C71 43.3137 68.3137 46 65 46C61.6863 46 59 43.3137 59 40Z" fill="black"/>
</svg>

<svg width="24" height="24" viewBox="0 0 80 80" fill="none" xmlns="http://www.w3.org/2000/svg"><path fill-rule="evenodd" clip-rule="evenodd" d="M40 9a6 6 0 100 12 6 6 0 000-12zm-14 6c0-7.732 6.268-14 14-14s14 6.268 14 14-6.268 14-14 14c-2.411 0-4.68-.61-6.66-1.683l-6.023 6.023c.455.838.826 1.729 1.103 2.66h23.16C53.3 30.217 58.658 26 65 26c7.732 0 14 6.268 14 14s-6.268 14-14 14c-2.411 0-4.68-.61-6.66-1.683l-6.023 6.023A13.938 13.938 0 0154 65c0 7.732-6.268 14-14 14s-14-6.268-14-14 6.268-14 14-14c2.411 0 4.68.61 6.66 1.683l6.023-6.023A13.91 13.91 0 0151.58 44H28.42C26.7 49.783 21.342 54 15 54 7.268 54 1 47.732 1 40s6.268-14 14-14c2.411 0 4.68.61 6.66 1.683l6.023-6.023A13.939 13.939 0 0126 15zm8 50a6 6 0 1112 0 6 6 0 01-12 0zM15 34a6 6 0 100 12 6 6 0 000-12zm44 6a6 6 0 1112 0 6 6 0 01-12 0z" fill="#000"/></svg>
